!!!OTL: Die Geburt im Walde.
!!!OTL-incipit: Es wundert und wundert mich immer so sehr,
!!!ARE: Europa, Mitteleuropa, Deutschland / France, Lothringen
!!!YOR: 1, S. 70
!!    1914 aufgezeichnet
!!!SCT: Q0007C
!!!TXL: @@DE
!!!YEM: Copyright 1995, estate of Helmut Schaffrath.
**kern	**text
*ICvox	*
*M3/8	*
*k[b-e-]	*
*g:	*
{16gL	Es
16aJ	.
=1	=1
8b-	wun-
8dd	-dert
8cc	und
=2	=2
8dd	wun-
8dd	-dert
8dd	mich
=3	=3
8dd	im-
8cc	-mer
8b-	ſo
=4	=4
4a}	ſehr,
{8b-	daß
=5	=5
8cc	unſ-
8cc	-re
16dd	ſchö-
16dd	-ne
=6	=6
8b-	Toch-
8b-	-ter
8b-	die
=7	=7
8a	Far-
8a	-be
16g	ſo
16g	ver-
=8	=8
4dd}	-liert,
{8d	daß
=9	=9
8g	unſ-
8g	-re
16a	ſchö-
16a	-ne
=10	=10
8b-	Toch-
8dd	-ter
8cc	die
=11	=11
8b-	Far-
8b-	-be
16a	ſo
16a	ver-
=12	=12
4g}	-liert.
==	==
!!!AGN: Ballade, Geburt, Tod, Moral
!!!ONB: ESAC (Essen Associative Code) Database: BALLADE
!!!AMT: simple triple
!!!AIN: vox
!!!EED: Helmut Schaffrath
!!!EEV: 1.0
!!!source: Deutsche Volkslieder mit ihren Melodien. Balladen. Herausgegeben vom Deutschen Volksliedarchiv. Erster Band Balladen. Berlin und Leipzig 1935.
!!!page: 70
!!!ENC: Anna Maria Matuszewska
!!!EEV: 2025/02/13
*-	*-
